X:136
T:no name
R:polka
H:See also #110
Z:id:hn-polka-136
M:2/4
L:1/8
K:Edor
BE FE | BE FE | D2 FA | DE FA |
BE FE | BE FE | D2 FA |1 FE d/e/d/c/ :|2 FE E2 ||
|: ef/e/ dB | ef/e/ dB | AF dF | AB/c/ d2 |
ef/e/ dB | ef/e/ dc/B/ | AB/c/ dF |1 FE E2 :|2 FE d/e/d/c/ ||

